X: 01067
T: REEL L\'EVIS BOULIANE
C: Bob McQuillen Oct'75
B: Bob's Note Book 1 #67
%R: reel
Z: 2019 John Chambers <jc:trillian.mit.edu>
M: C
L: 1/8
K: D
FG \
| ABAG FAde | fddd Addc | BcdB ABcd | edef e2FG |
| ABAG FAde | fddd AddB | ABcd efga | f2d2 d2 :|
|: cd \
| eAAA ecde | fdAd fdfa | gbge fafd | e2A2 A2cd |
| eAAA ecde | fdAd fdfa | gbge fdec | d2f2 d2 :|
%%begintext align
%% C'est bon \`a \'ecouter quand
%% L\'evis joue du violin!!
%% Merci beaucoup, L\'evis!
%%endtext

%%sep 1 1 500

%%sep 1 1 500

